X: 24
T: KITTY FISHER
B: "Old English Country Dances", Frank Kidson ed., William Reeves pub., London 1890
Z: 2010-9-26 John Chambers <jc:trillian.mit.edu>
M: 2/4
L: 1/16
K: G
|: GABc d2B2  | G2g2 g4   | GABc d2B2  | F2A2 A4 |\
   GABc d2B2  | G2g2 g2e2 | f2d2 e2^c2 | d4   D4 :|
|: defg a2=c2 | B2g2 g4   | GABc d2G2  | F2A2 A4 |\
   GABc d2G2  | G2g2 g2e2 | d2B2 c2A2  | G4   G4 :|


%%sep 1 1 500

%%sep 1 1 500

